X: 11
T: Missa Cucu / Kyrie
N: Derived from Mar1003a-Missa_Cucu-Kyrie.krn
C: Johannes Martini
%%abc-version 2.0
%%abcx-abcm2ps-target-version 5.9.1 (29 Sep 2008)
%%abc-creator hum2abc beta
%%abcx-conversion-date 2019/02/17 07:19:40
%%abc-edited-by Jesse Rodin
%%abc-edited-by Chris Gage 11-20-2013
%%abcx-initial-encoding-date 2014/06/14/
%%humdrum-veritas 665103480
%%humdrum-veritas-data 2473665592
%%linebreak <none>
%%barnumbers 0
L: 1/4
M: 3/1
Q: 1/2=120
%%staves [1 2 3 4]
V: 1 clef=treble
V: 2 clef=treble-8
V: 3 clef=treble-8
V: 4 clef=bass
K: C
[V:1] A8G4 | 
[V:2] d8B2c2 | 
[V:3] z12 | 
[V:4] D,8E,4 | 
[V:1] F6E2D4 | 
[V:2] d4D2E2F2G2 | 
[V:3] z12 | 
[V:4] D,6C,2_B,,4 | 
[V:1] C2E3DC2B,4 | 
[V:2] A2c4BA^G4 | 
[V:3] z12 | 
[V:4] A,,4C,2D,2E,4 | 
[V:1] A,4z2E2F2G2 | 
[V:2] A4c4d2e2 | 
[V:3] z12 | 
[V:4] z2A,,4A,,2D,2C,2 | 
[V:1] A2B3AA3^G/^F/G2 | 
[V:2] A2d4c2B4 | 
[V:3] z12 | 
[V:4] F,2G,4A,2E,4 | 
[V:1] A8z4 | 
[V:2] A6GFE4 | 
[V:3] c12 | 
[V:4] A,,8C,4 | 
[V:1] F6E2D2CD | 
[V:2] D4F8 | 
[V:3] A12 | 
[V:4] D,12 | 
[V:1] E4z2E2D2F2 | 
[V:2] E4A4F4 | 
[V:3] c8A4 | 
[V:4] A,,8D,4 | 
[V:1] E2G3FEDC2F2 | 
[V:2] G4E6F2 | 
[V:3] c8A4 | 
[V:4] C,4z2C,4D,2 | 
[V:1] E2AGFEE3DDC | 
[V:2] G2D2A2G2F4 | 
[V:3] z12 | 
[V:4] C,2F,4C,2D,4 | 
[V:1] E4z4E4 | 
[V:2] G4A4A4 | 
[V:3] c12 | 
[V:4] C,4A,,8 | 
[V:1] F2G2A4A2c2- | 
[V:2] z4A6GF | 
[V:3] A4z4z4 | 
[V:4] D,8F,4 | 
[V:1] cB/A/G2F2GA_B4 | 
[V:2] E4F4G4 | 
[V:3] c4A4d4 | 
[V:4] C,4D,4G,,4 | 
[V:1] A6^G2G2^F2 | 
[V:2] E4z4e4- | 
[V:3] c4B8 | 
[V:4] A,,4E,8 | 
[V:1] A3GE2D2F4 | 
[V:2] e4e2f2d4 | 
[V:3] A12 | 
[V:4] A,,3B,,C,2D,6 | 
[V:1] E2C2D2E2F2ED- | 
[V:2] e2zA2Bc2A2GB | 
[V:3] c4A4z4 | 
[V:4] C,2A,,2D,2C,2D,2G,,2 | 
[V:1] DCB,A,/B,/CA,A,3^G,G,2 | 
[V:2] A2G2FEE4D2 | 
[V:3] z12 | 
[V:4] z2G,,2A,,2C,2B,,4 | 
[V:1] A,4z2E3FG2 | 
[V:2] E4A4G4 | 
[V:3] z4c8 | 
[V:4] A,,8C,4 | 
[V:1] F2A3GFEF4 | 
[V:2] z4c4d4 | 
[V:3] A8z4 | 
[V:4] D,2F,3E,F,2D,4 | 
[V:1] G2FE2DD3^CCB, | 
[V:2] e2A3GF2E4 | 
[V:3] c4A4A4 | 
[V:4] z2A,,2C,2D,2A,,4 | 
[V:1] D4F4E4 | 
[V:2] D2F3EF2G2c2- | 
[V:3] z4A4c4 | 
[V:4] D,8C,4 | 
[V:1] A4^G2G4^FG | 
[V:2] cBcde8 | 
[V:3] A4B4B4 | 
[V:4] F,4E,8 | 
[V:1] A12 ||  
[V:2] e12 ||  
[V:3] A12 ||  
[V:4] A,,12 ||  
[V:1]  [K:C] [K:clef=treble][M:2/1]A8- | 
[V:2]  [K:C] [K:clef=treble-8][M:2/1]A8 | 
[V:3]  [K:C] [K:clef=treble-8][M:2/1]z8 | 
[V:4]  [K:C] [K:clef=bass][M:2/1]z8 | 
[V:1] A8 | 
[V:2] c8 | 
[V:3] z8 | 
[V:4] z8 | 
[V:1] G4A4- | 
[V:2] B4A4 | 
[V:3] z8 | 
[V:4] z8 | 
[V:1] A2GFE4- | 
[V:2] c6BA | 
[V:3] z8 | 
[V:4] A,,8 | 
[V:1] E4C4 | 
[V:2] G4A4 | 
[V:3] z8 | 
[V:4] C,8 | 
[V:1] D4C4 | 
[V:2] z4A4 | 
[V:3] z8 | 
[V:4] B,,4A,,4 | 
[V:1] E6DC | 
[V:2] G4c4 | 
[V:3] z8 | 
[V:4] C,6B,,A,, | 
[V:1] B,4A,4 | 
[V:2] d3ef2e2- | 
[V:3] z8 | 
[V:4] G,,4A,,4- | 
[V:1] A4B4 | 
[V:2] e2c2d4 | 
[V:3] z8 | 
[V:4] A,,4G,,4 | 
[V:1] G4F2A2- | 
[V:2] e4A4- | 
[V:3] z8 | 
[V:4] C,4D,3E, | 
[V:1] A2B2c2A2 | 
[V:2] A2G2c4 | 
[V:3] z8 | 
[V:4] F,2E,4C,2 | 
[V:1] BA^G^FG4 | 
[V:2] B8 | 
[V:3] z8 | 
[V:4] D,4E,4 | 
[V:1] A8- | 
[V:2] A8- | 
[V:3] c8- | 
[V:4] A,,8 | 
[V:1] A8 | 
[V:2] A8 | 
[V:3] c8- | 
[V:4] z4F,4 | 
[V:1] G8 | 
[V:2] z4e4 | 
[V:3] c8 | 
[V:4] E,4C,4 | 
[V:1] F4A4- | 
[V:2] d4c4 | 
[V:3] A8 | 
[V:4] D,4F,4- | 
[V:1] A2B2A2GF | 
[V:2] A8 | 
[V:3] c8- | 
[V:4] F,2G,2F,3D, | 
[V:1] E3DE4 | 
[V:2] G8 | 
[V:3] c8 | 
[V:4] C,8 | 
[V:1] D8 | 
[V:2] F8 | 
[V:3] A8- | 
[V:4] D,8- | 
[V:1] z4D4 | 
[V:2] D4F4 | 
[V:3] A8- | 
[V:4] D,8 | 
[V:1] E4C4- | 
[V:2] E4A4 | 
[V:3] A8 | 
[V:4] A,,8 | 
[V:1] C2B,CA,4 | 
[V:2] G4F4- | 
[V:3] z8 | 
[V:4] C,4D,4- | 
[V:1] B,2C4A,2- | 
[V:2] F2E2E4- | 
[V:3] z8 | 
[V:4] D,2A,,2C,4 | 
[V:1] A,2^G,^F,G,4 | 
[V:2] E2D2D2C2 | 
[V:3] z8 | 
[V:4] B,,8 | 
[V:1] A,8 | 
[V:2] E8- | 
[V:3] z8 | 
[V:4] A,,8- | 
[V:1] z4A4- | 
[V:2] E8 | 
[V:3] c8- | 
[V:4] A,,8 | 
[V:1] A2GFG4 | 
[V:2] e8 | 
[V:3] c8 | 
[V:4] E,8 | 
[V:1] F6ED | 
[V:2] d8 | 
[V:3] A8- | 
[V:4] D,6C,B,, | 
[V:1] E4D4- | 
[V:2] A4F4 | 
[V:3] A8 | 
[V:4] C,4D,4 | 
[V:1] D2^CB,C4 | 
[V:2] G8 | 
[V:3] z8 | 
[V:4] E,8 | 
[V:1] D4F4- | 
[V:2] A8 | 
[V:3] z8 | 
[V:4] D,8 | 
[V:1] F2E2E4- | 
[V:2] G4E4 | 
[V:3] c8 | 
[V:4] E,4C,4 | 
[V:1] E2D2D3C | 
[V:2] F8 | 
[V:3] A8- | 
[V:4] D,8 | 
[V:1] E6C2 | 
[V:2] E8 | 
[V:3] A8 | 
[V:4] A,,8 | 
[V:1] E4F4 | 
[V:2] A6B2 | 
[V:3] c4d4 | 
[V:4] z4D,4 | 
[V:1] G4A4 | 
[V:2] c2d2e4 | 
[V:3] e4c4 | 
[V:4] C,4A,,4 | 
[V:1] B2G4FG | 
[V:2] z2e4c2- | 
[V:3] B8 | 
[V:4] E,8 | 
[V:1] A8 | 
[V:2] c2c2A4- | 
[V:3] A8 | 
[V:4] A,,4D,4- | 
[V:1] z8 | 
[V:2] A2F2G4 | 
[V:3] d8 | 
[V:4] D,2C,2B,,4 | 
[V:1] z8 | 
[V:2] A4F2A2- | 
[V:3] c4A4 | 
[V:4] A,,4D,4 | 
[V:1] z8 | 
[V:2] A2G4F2 | 
[V:3] c4B2A2- | 
[V:4] A,,2C,2G,,2D,2 | 
[V:1] z8 | 
[V:2] E2e4d2 | 
[V:3] A2G2F4 | 
[V:4] B,,2C,2D,4 | 
[V:1] z8 | 
[V:2] c4e4- | 
[V:3] E4A4 | 
[V:4] A,,4A,,2C,2- | 
[V:1] z8 | 
[V:2] e2dcB4 | 
[V:3] z4d4 | 
[V:4] C,2B,,A,,G,,4 | 
[V:1] z8 | 
[V:2] A4z2D2 | 
[V:3] c2e4d2 | 
[V:4] A,,6B,,2 | 
[V:1] z8 | 
[V:2] E2F2D3C | 
[V:3] c2BA^G3^F | 
[V:4] C,2D,2B,,4 | 
[V:1] A4G4 | 
[V:2] E2F2E4 | 
[V:3] A8 | 
[V:4] A,,4C,4 | 
[V:1] F6ED | 
[V:2] A8 | 
[V:3] z8 | 
[V:4] D,4F,4 | 
[V:1] E2F2G2FG | 
[V:2] G8 | 
[V:3] c8 | 
[V:4] C,4E,2D,E, | 
[V:1] A2GFE4 | 
[V:2] c8 | 
[V:3] A8- | 
[V:4] F,2G,2A,4 | 
[V:1] D4F4 | 
[V:2] d8 | 
[V:3] A8 | 
[V:4] D,8 | 
[V:1] G4A4- | 
[V:2] e8 | 
[V:3] c8 | 
[V:4] C,4A,,4- | 
[V:1] A2G2E4 | 
[V:2] c8 | 
[V:3] A8- | 
[V:4] A,,4A,,4 | 
[V:1] F8 | 
[V:2] d8 | 
[V:3] A8- | 
[V:4] D,8 | 
[V:1] [E8A8] ||  
[V:2] c8 ||  
[V:3] A8 ||  
[V:4] A,,8 ||  
[V:1]  [K:C] [K:clef=treble][M:3/1]z12 | 
[V:2]  [K:C] [K:clef=treble-8][M:3/1]A6B2c2d2- | 
[V:3]  [K:C] [K:clef=treble-8][M:3/1]z12 | 
[V:4]  [K:C] [K:clef=bass][M:3/1]D,8E,2D,2 | 
[V:1] z12 | 
[V:2] d2e3dcBc2A2 | 
[V:3] z12 | 
[V:4] F,2G,2A,4A,,4 | 
[V:1] z12 | 
[V:2] defe2dd3^c^cB | 
[V:3] z12 | 
[V:4] B,,2A,,2C,2D,2E,4 | 
[V:1] z12 | 
[V:2] d4c2e4A2 | 
[V:3] z12 | 
[V:4] D,2C,B,,A,,4C,2D,2 | 
[V:1] z12 | 
[V:2] G2c4B2G2A2- | 
[V:3] z12 | 
[V:4] E,4F,2G,2E,2C,2 | 
[V:1] z12 | 
[V:2] AGFED2F2E2A2 | 
[V:3] z12 | 
[V:4] D,3C,B,,2A,,2A,,C,2C, | 
[V:1] z12 | 
[V:2] B2c3BA3^G/^F/^G2 | 
[V:3] z12 | 
[V:4] D,2E,2A,,4B,,4 | 
[V:1] A6G2F4 | 
[V:2] A4c4d4 | 
[V:3] c8A4 | 
[V:4] A,,8D,4 | 
[V:1] E2A4G2F2ED | 
[V:2] e2c2f2e2d2cB | 
[V:3] z4c4A4 | 
[V:4] C,2F,3E,C,2D,2E,2 | 
[V:1] C4z2F2G2E2 | 
[V:2] A3FA2B2c3A | 
[V:3] z4d4e4 | 
[V:4] F,4D,4C,4 | 
[V:1] A2A4^G^FG4 | 
[V:2] c2d2e8 | 
[V:3] A4B8 | 
[V:4] F,4E,8 | 
[V:1] A4c4B4 | 
[V:2] e2c4BA^G4 | 
[V:3] A8z4 | 
[V:4] A,,8E,4 | 
[V:1] A3GF2E3CE2 | 
[V:2] A4z4A4 | 
[V:3] c4A4c4 | 
[V:4] A,,2C,2D,2C,2A,,2C,2 | 
[V:1] D2EF2EE3D/C/D2 | 
[V:2] F2A4G2F4 | 
[V:3] A4c4A4 | 
[V:4] D,2A,,3B,,C,2D,4 | 
[V:1] E3DCB,A,2z2E2- | 
[V:2] E4F2E2A3G | 
[V:3] c4A2c4A2 | 
[V:4] A,,12 | 
[V:1] E2D2C4B,4 | 
[V:2] EFG2A2E2z2e2- | 
[V:3] c2B2A2A3^G/^F/^G2 | 
[V:4] z4A,,4E,4 | 
[V:1] C2A,B,C2D4C2 | 
[V:2] edcBA2G2A4 | 
[V:3] A3G/F/E2D2E4 | 
[V:4] A,,6B,,2A,,4 | 
[V:1] D3CB,A,B,2A,4 | 
[V:2] F4G4E4 | 
[V:3] D4d4c4 | 
[V:4] _B,,4G,,4A,,4- | 
[V:1] z2C2D2F4E2 | 
[V:2] FGA3GF2G4 | 
[V:3] A4z4c4 | 
[V:4] A,,4D,4C,4 | 
[V:1] F4G2A4_B2 | 
[V:2] F4z2c2d2f2 | 
[V:3] A4B2A2d4 | 
[V:4] D,2F,2E,2F,2D,4 | 
[V:1] A2c3BA3^GG^F | 
[V:2] e4A4z2e2 | 
[V:3] c2A2c4B4 | 
[V:4] A,,4z2C,2D,2E,2 | 
[V:1] A2F2DFEC2A,2D- | 
[V:2] c2f2zDE3F3 | 
[V:3] A12 | 
[V:4] A,,2D,4C,2A,,2D,2 | 
[V:1] DB,CE2A,2A,B,G,2F,/G,/ | 
[V:2] G2E4F2D2d2 | 
[V:3] z12 | 
[V:4] G,,2A,,2C,2D,2B,,4 | 
[V:1] A,4A4G4 | 
[V:2] c2A3BAG/F/E4 | 
[V:3] c8c4 | 
[V:4] A,,8C,4 | 
[V:1] F2E4DCD4 | 
[V:2] F2G2A4D4 | 
[V:3] A2c4BA^G3^F | 
[V:4] D,2C,2A,,4B,,4 | 
[V:1] C4c4B4 | 
[V:2] E2F2E2A3^G/^F/^G2 | 
[V:3] A8z4 | 
[V:4] A,,8E,4 | 
[V:1] A2G4FEF4 | 
[V:2] ABcde4d4 | 
[V:3] c8A4 | 
[V:4] F,2E,2C,4D,4 | 
[V:1] E3FG2A3^GG^F | 
[V:2] c2e4d2e4 | 
[V:3] c4B2A2B4 | 
[V:4] A,,4E,2F,2E,4 | 
[V:1] A12 |]  
[V:2] e12 |]  
[V:3] A12 |]  
[V:4] A,,12 |]  



